X: 11
T: Long Odds
M:4/4
L:1/8
S:Chris Partington <ChrisTheFiddlerPartington:Hotmail.com> tradtunes 2009-2-3
B:Thomas Preston "Twenty-Four Country Dances of the Year" 1791
K:G
|: DGGA B2BG|c2cA BGFE|DGGA BABd|ecAF G2G2 :|
|: egfe e2dB|cedc c2B2|ABcA Bcd2|ecAG GFED  |
|  egfe e2dB|cedc c2B2|ABcA Bcd2|ecAF G2G2 :|
%%sep 1 1 500
